bundles/org.openhab.ui.habpanel/web/assets/icons/smarthome-set/router.svg

<?xml version="1.0" encoding="UTF-8" standalone="no"?>
<svg width="32px" height="32px" viewBox="0 0 32 32" version="1.1" xmlns="http://www.w3.org/2000/svg" xmlns:xlink="http://www.w3.org/1999/xlink" xmlns:sketch="http://www.bohemiancoding.com/sketch/ns">
    <!-- Generator: Sketch 3.3.2 (12043) - http://www.bohemiancoding.com/sketch -->
    <title>router</title>
    <desc>Created with Sketch.</desc>
    <defs></defs>
    <g id="flatten" stroke="none" stroke-width="1" fill="none" fill-rule="evenodd" sketch:type="MSPage">
        <g id="z-copy" sketch:type="MSArtboardGroup" transform="translate(-36.000000, -164.000000)" fill="#000000">
            <g id="router" sketch:type="MSLayerGroup" transform="translate(36.000000, 164.000000)">
                <path d="M11.710276,18 C11.8210667,17.7458369 11.8714372,17.4572468 11.8459415,17.1512983 L11.0835394,8.00247329 C11.0379801,7.45576096 10.5522847,7 10,7 C9.44386482,7 8.96259812,7.44882258 8.91646056,8.00247329 L8.15405847,17.1512983 C8.12853338,17.4575995 8.17899724,17.746084 8.28976355,18 L4.0042577,18 C1.78902751,18 0,19.7919219 0,22.0023695 L0,24.9976305 C0,27.2081782 1.79276724,29 4.0042577,29 L27.9957423,29 C30.2109725,29 32,27.2080781 32,24.9976305 L32,22.0023695 C32,19.7918218 30.2072328,18 27.9957423,18 L11.710276,18 L11.710276,18 L11.710276,18 Z M2,22.0023695 L2,24.9976305 C2,26.1033552 2.89708333,27 4.0042577,27 L27.9957423,27 C29.1050336,27 30,26.1048782 30,24.9976305 L30,22.0023695 C30,20.8966448 29.1029167,20 27.9957423,20 L4.0042577,20 C2.89496636,20 2,20.8951218 2,22.0023695 L2,22.0023695 Z M5.5,22 C6.32842712,22 7,22.6657972 7,23.5 C7,24.3284271 6.33420277,25 5.5,25 C4.67157288,25 4,24.3342028 4,23.5 C4,22.6715729 4.66579723,22 5.5,22 L5.5,22 Z M25,23.5 C25,22.6715729 25.6657972,22 26.5,22 C27.3284271,22 28,22.6657972 28,23.5 C28,24.3284271 27.3342028,25 26.5,25 C25.6715729,25 25,24.3342028 25,23.5 L25,23.5 Z M9,23.5 C9,23.2238576 9.21403503,23 9.50468445,23 L10.4953156,23 C10.7740451,23 11,23.2319336 11,23.5 C11,23.7761424 10.785965,24 10.4953156,24 L9.50468445,24 C9.22595492,24 9,23.7680664 9,23.5 L9,23.5 Z M13,23.5 C13,23.2238576 13.214035,23 13.5046844,23 L14.4953156,23 C14.7740451,23 15,23.2319336 15,23.5 C15,23.7761424 14.785965,24 14.4953156,24 L13.5046844,24 C13.2259549,24 13,23.7680664 13,23.5 L13,23.5 Z M17,23.5 C17,23.2238576 17.214035,23 17.5046844,23 L18.4953156,23 C18.7740451,23 19,23.2319336 19,23.5 C19,23.7761424 18.785965,24 18.4953156,24 L17.5046844,24 C17.2259549,24 17,23.7680664 17,23.5 L17,23.5 Z M21,23.5 C21,23.2238576 21.214035,23 21.5046844,23 L22.4953156,23 C22.7740451,23 23,23.2319336 23,23.5 C23,23.7761424 22.785965,24 22.4953156,24 L21.5046844,24 C21.2259549,24 21,23.7680664 21,23.5 L21,23.5 Z M6.01990983,12.4024096 C6.15472917,12.5900927 6.3029146,12.7704182 6.46446609,12.9419272 C6.46446609,12.9419272 6.98249976,13.268353 7,12.3733847 C7.00891113,11.9176663 6.46446609,11.1770259 6.46446609,11.1770259 C6.24961646,10.7468443 6.10930461,10.2857056 6.04353055,9.81508964 L6.11270831,9.81508964 C6.05157734,9.54710098 6.01531362,9.27402472 6.00391717,9 C6.01531362,8.72597528 6.05157734,8.45289902 6.11270831,8.18491036 L6.04353055,8.18491036 C6.10930461,7.71429443 6.24961646,7.25315571 6.46446609,6.82297409 C6.46446609,6.82297409 7.00891113,6.08233374 7,5.62661527 C6.98249976,4.73164698 6.46446609,5.05807277 6.46446609,5.05807277 C6.3029146,5.22958179 6.15472917,5.40990728 6.01990983,5.59759039 C5.30228398,6.59660316 4.96335842,7.80407865 5.00313314,9 C4.96335842,10.1959214 5.30228398,11.4033968 6.01990983,12.4024096 L6.01990983,12.4024096 Z M2.00127294,9 C1.96401504,6.85396874 2.74463931,4.69580366 4.34314575,3.05822615 C4.34314575,3.05822615 5,2.70669314 5,3.73113538 C5,3.86770882 4.34314575,4.62771793 4.34314575,4.62771793 C3.59483266,5.67633419 3.15920296,6.8860394 3.03625664,8.12221119 L3.07137478,8.12221119 C3.03058498,8.41332445 3.00727833,8.70651401 3.00145482,9 C3.00727833,9.29348599 3.03058498,9.58667555 3.07137478,9.87778881 L3.03625664,9.87778881 C3.15920296,11.1139606 3.59483266,12.3236658 4.34314575,13.3722821 C4.34314575,13.3722821 5,14.1322912 5,14.2688646 C5,15.2933069 4.34314575,14.9417739 4.34314575,14.9417739 C2.74463931,13.3041963 1.96401504,11.1460313 2.00127294,9 L2.00127294,9 L2.00127294,9 Z M13.9801984,12.4024096 C13.845379,12.5900927 13.6971936,12.7704182 13.5356421,12.9419272 C13.5356421,12.9419272 13.0176084,13.268353 13.0001082,12.3733847 C12.9911971,11.9176663 13.5356421,11.1770259 13.5356421,11.1770259 C13.7504917,10.7468443 13.8908036,10.2857056 13.9565777,9.81508964 L13.8873999,9.81508964 C13.9485309,9.54710098 13.9847946,9.27402472 13.996191,9 C13.9847946,8.72597528 13.9485309,8.45289902 13.8873999,8.18491036 L13.9565777,8.18491036 C13.8908036,7.71429443 13.7504917,7.25315571 13.5356421,6.82297409 C13.5356421,6.82297409 12.9911971,6.08233374 13.0001082,5.62661527 C13.0176084,4.73164698 13.5356421,5.05807277 13.5356421,5.05807277 C13.6971936,5.22958179 13.845379,5.40990728 13.9801984,5.59759039 C14.6978242,6.59660316 15.0367498,7.80407865 14.9969751,9 C15.0367498,10.1959214 14.6978242,11.4033968 13.9801984,12.4024096 L13.9801984,12.4024096 Z M17.9987271,9 C18.035985,6.85396874 17.2553607,4.69580366 15.6568542,3.05822615 C15.6568542,3.05822615 15,2.70669314 15,3.73113538 C15,3.86770882 15.6568542,4.62771793 15.6568542,4.62771793 C16.4051673,5.67633419 16.840797,6.8860394 16.9637434,8.12221119 L16.9286252,8.12221119 C16.969415,8.41332445 16.9927217,8.70651401 16.9985452,9 C16.9927217,9.29348599 16.969415,9.58667555 16.9286252,9.87778881 L16.9637434,9.87778881 C16.840797,11.1139606 16.4051673,12.3236658 15.6568542,13.3722821 C15.6568542,13.3722821 15,14.1322912 15,14.2688646 C15,15.2933069 15.6568542,14.9417739 15.6568542,14.9417739 C17.2553607,13.3041963 18.035985,11.1460313 17.9987271,9 L17.9987271,9 L17.9987271,9 Z M5.5,24 C5.77614237,24 6,23.7761424 6,23.5 C6,23.2238576 5.77614237,23 5.5,23 C5.22385763,23 5,23.2238576 5,23.5 C5,23.7761424 5.22385763,24 5.5,24 L5.5,24 Z M26.5,24 C26.7761424,24 27,23.7761424 27,23.5 C27,23.2238576 26.7761424,23 26.5,23 C26.2238576,23 26,23.2238576 26,23.5 C26,23.7761424 26.2238576,24 26.5,24 L26.5,24 Z" sketch:type="MSShapeGroup"></path>
            </g>
        </g>
    </g>
</svg>

<svg width="32" height="32" xmlns="http://www.w3.org/2000/svg"><path d="M11.71 18a1.75 1.75 0 0 0 .136-.849l-.762-9.149A1.114 1.114 0 0 0 10 7c-.556 0-1.037.449-1.084 1.002l-.762 9.15A1.75 1.75 0 0 0 8.29 18H4.004A4 4 0 0 0 0 22.002v2.996A4.003 4.003 0 0 0 4.004 29h23.992A4 4 0 0 0 32 24.998v-2.996A4.003 4.003 0 0 0 27.996 18H11.71ZM2 22.002v2.996C2 26.103 2.897 27 4.004 27h23.992A2 2 0 0 0 30 24.998v-2.996A2.003 2.003 0 0 0 27.996 20H4.004A2 2 0 0 0 2 22.002ZM5.5 22c.828 0 1.5.666 1.5 1.5 0 .828-.666 1.5-1.5 1.5-.828 0-1.5-.666-1.5-1.5 0-.828.666-1.5 1.5-1.5ZM25 23.5c0-.828.666-1.5 1.5-1.5.828 0 1.5.666 1.5 1.5 0 .828-.666 1.5-1.5 1.5-.828 0-1.5-.666-1.5-1.5Zm-16 0c0-.276.214-.5.505-.5h.99c.279 0 .505.232.505.5 0 .276-.214.5-.505.5h-.99A.508.508 0 0 1 9 23.5Zm4 0c0-.276.214-.5.505-.5h.99c.279 0 .505.232.505.5 0 .276-.214.5-.505.5h-.99a.508.508 0 0 1-.505-.5Zm4 0c0-.276.214-.5.505-.5h.99c.279 0 .505.232.505.5 0 .276-.214.5-.505.5h-.99a.508.508 0 0 1-.505-.5Zm4 0c0-.276.214-.5.505-.5h.99c.279 0 .505.232.505.5 0 .276-.214.5-.505.5h-.99a.508.508 0 0 1-.505-.5ZM6.02 12.402c.135.188.283.368.444.54 0 0 .518.326.536-.569.009-.455-.536-1.196-.536-1.196a4.417 4.417 0 0 1-.42-1.362h.069A4.509 4.509 0 0 1 6.003 9c.012-.274.049-.547.11-.815h-.07c.066-.47.207-.932.421-1.362 0 0 .545-.74.536-1.196-.018-.895-.536-.569-.536-.569-.161.172-.31.352-.444.54A5.521 5.521 0 0 0 5.003 9a5.521 5.521 0 0 0 1.017 3.402ZM2 9a8.278 8.278 0 0 1 2.342-5.942S5 2.707 5 3.731c0 .137-.657.897-.657.897a7.244 7.244 0 0 0-1.307 3.494h.035c-.04.291-.064.585-.07.878.006.293.03.587.07.878h-.035a7.244 7.244 0 0 0 1.307 3.494s.657.76.657.897c0 1.024-.657.673-.657.673A8.278 8.278 0 0 1 2.001 9Zm11.98 3.402a5.275 5.275 0 0 1-.445.54s-.518.326-.536-.569c-.009-.455.536-1.196.536-1.196.214-.43.355-.891.42-1.362h-.069c.062-.268.098-.541.11-.815a4.509 4.509 0 0 0-.11-.815h.07a4.417 4.417 0 0 0-.421-1.362s-.545-.74-.536-1.196c.018-.895.536-.569.536-.569.161.172.31.352.444.54A5.521 5.521 0 0 1 14.997 9a5.521 5.521 0 0 1-1.017 3.402ZM17.998 9a8.278 8.278 0 0 0-2.342-5.942S15 2.707 15 3.731c0 .137.657.897.657.897a7.244 7.244 0 0 1 1.307 3.494h-.035c.04.291.064.585.07.878-.006.293-.03.587-.07.878h.035a7.244 7.244 0 0 1-1.307 3.494s-.657.76-.657.897c0 1.024.657.673.657.673A8.278 8.278 0 0 0 17.999 9ZM5.5 24a.5.5 0 1 0 0-1 .5.5 0 0 0 0 1Zm21 0a.5.5 0 1 0 0-1 .5.5 0 0 0 0 1Z" fill="#000" fill-rule="evenodd"/></svg>
